X: 14800
T: Gånglåt Från Mockfjärd
R: hornpipe
M: 4/4
K: Dmajor
FG|:A2>B2 A2G2|F2>D2 F2FG|ABAF A2d2|f4- f2ef|
g2bg f2af|e2fe d2fd|c2ec E^GBG|A6 FG|
A2>B2 A2G2|F2>D2 F2FG|ABAF A2d2|f6 ef|
g2bg f2af|e2fe d2fd|c2a2 Acec|d6 f2:|
|:g2>a2 gfga|b2g2 d2B2|A2>g2 fefg|a6 g2|f2e2 e^def|
g2e2 c2A2|1 d2fd c2ec|B2dB A2ef:|2 d2a2 Acec|d8||

